X:10917
T:Miss Mary Walker
R:Reel
S:(Sean Keane)
H:
N:
D:
Z:Adrian Scahill
M:4/4
L:1/8
K:B
B2dB ecAc|B2df bfdB|(3eee Ge d2 Fd|cdcB BAGF|\
Bc (3dcB ecAc|B2df bfdB|egce dfBd|cf=ef af_ec||\
B2bB aBgB|(3fgf df bfdB|AFeF dFcF|Acde fcAc|\
B2bB aBgB|(3fgf df bfdB|egce dfBd|cf=ef af_ec||
